X:120
T:Woodchopper's Reel
M:4/4
L:1/8
Q:1/8=420
K:D
fg|:afdB AdFA|DFAd f2ef|gece Aece|agab agfg|
afdB AdFA|DFAd f2ef|gece Aece|1 d2dd d2fg:|2 d2dd d4 |
|:DFAd B/d/BAF|DFAd B/d/BAF|A,CEA ceaf|gfed cBAF|
DFAd B/d/BAF|DFAd B/d/BAF|A,CEA ceaf|gecA d4:|
